X:56
T:O Mia Bela Madunina
C:Traditional Italian
N:TablEdited by Vito Minerva
L:1/8
Q:1/4=150
M:2/2
K:C
z6E2 | "C"GGAA BBcc | BAG4E2 | GGAA BBGG | "Dm"A6F2 | AABB ccdd | cBA4F2 | AABB "D7"ccBB | 
"G"G6G2 | "B7"^FFFF FGAF | "Em"G6B2 | "D7"AAAA ABcA | "G7"B8 | z2DG cccB | "C"d2c6 | 
z2Bc BAGA | "G7"B8 | z2DF BBBA | c2B6 | z2Bc BAGA | "C"A8 | z2DG cccB | "C"d2c6 | 
"C7"z2cd ecde | "F6"d8 | z2de "Fm"fedf | "C"edcd e4 | "D7"z2de dcBc | "C"c8 | 
 

